automancy/models/items/alchemy/files/aqua_fortis.svg

<?xml version="1.0" encoding="UTF-8" standalone="no"?>
<svg
   width="160cm"
   height="160cm"
   viewBox="0 0 160 160"
   version="1.1"
   id="svg2"
   sodipodi:docname="aqua_fortis.svg"
   inkscape:version="1.3.2 (091e20ef0f, 2023-11-25, custom)"
   xmlns:inkscape="http://www.inkscape.org/namespaces/inkscape"
   xmlns:sodipodi="http://sodipodi.sourceforge.net/DTD/sodipodi-0.dtd"
   xmlns="http://www.w3.org/2000/svg"
   xmlns:svg="http://www.w3.org/2000/svg">
  <defs
     id="defs2">
    <inkscape:path-effect
       effect="fill_between_many"
       method="originald"
       linkedpaths="#path1,0,1|"
       id="path-effect1" />
  </defs>
  <sodipodi:namedview
     id="namedview2"
     pagecolor="#505050"
     bordercolor="#eeeeee"
     borderopacity="1"
     inkscape:showpageshadow="0"
     inkscape:pageopacity="0"
     inkscape:pagecheckerboard="0"
     inkscape:deskcolor="#d1d1d1"
     inkscape:document-units="cm"
     inkscape:zoom="0.080000004"
     inkscape:cx="2037.4999"
     inkscape:cy="3093.7499"
     inkscape:window-width="1870"
     inkscape:window-height="1052"
     inkscape:window-x="0"
     inkscape:window-y="0"
     inkscape:window-maximized="1"
     inkscape:current-layer="svg2"
     showguides="true" />
  <path
     style="color:#000000;fill:#9592ce;stroke-linejoin:round;-inkscape-stroke:none;paint-order:stroke fill markers"
     d="M 80.867187,0 C 70.981828,-0.0278845 61.435545,6.3533009 59.433594,16.65625 l 0.0039,-0.02539 c 0,0 -2.62569,12.920094 -7.109375,24 -1.702223,4.206475 -3.783223,7.759477 -5.212891,9.91211 C 40.531871,50.113523 34.404625,51.647221 29.207031,54.109375 22.708579,57.187771 17.549653,61.71228 13.523438,66.533203 5.4425914,76.209094 0.19359301,88.872175 0.00390625,102.76563 -0.19066747,117.01683 6.0179581,132.96703 20.226562,143.87891 34.347688,154.72364 54.162745,160.00704 79.679687,160 c 25.507003,-0.008 45.338153,-5.30746 59.521483,-16.05273 14.26526,-10.8074 20.71728,-26.5828 20.79883,-40.81055 0.0796,-13.878346 -4.91622,-26.610148 -12.83789,-36.371095 -3.94508,-4.861048 -9.05441,-9.451994 -15.53906,-12.580078 -5.20772,-2.512132 -11.33742,-4.065912 -17.92578,-3.642578 -1.42657,-2.153391 -3.50008,-5.697732 -5.19532,-9.896485 -4.47252,-11.07752 -7.08593,-23.998046 -7.08593,-23.998047 l 0.004,0.02539 C 99.315266,5.7895815 90.287525,0.02657278 80.867187,0 Z m -0.453125,45.189453 c 0.695245,1.983663 1.309623,3.924768 2.123047,5.939453 2.968544,7.352462 6.28873,14.196714 11.611328,20.091797 2.692233,2.981763 4.886721,4.97984 8.978513,6.697266 v -0.002 c 1.37688,0.577948 9.44661,1.237949 11.1875,0.767578 1.21178,-0.327409 3.51522,-0.06236 5.14258,0.722656 h 0.002 c 2.07703,1.00192 3.97782,2.560347 5.96094,5.003906 3.9347,4.848263 6.61948,11.697328 6.58008,18.566401 -0.0374,6.51971 -2.28285,13.02776 -9.70703,18.65235 -7.50613,5.68663 -21.06795,10.36468 -42.621095,10.37109 -21.562124,0.006 -35.032124,-4.67695 -42.390625,-10.32812 -7.27102,-5.58398 -9.368221,-12.01232 -9.279297,-18.5254 0.09381,-6.870806 2.927311,-13.773443 7.011719,-18.664055 2.056419,-2.462322 4.039425,-4.054491 6.179687,-5.06836 1.719383,-0.814489 4.03676,-1.069884 5.292969,-0.730468 1.73385,0.468473 9.801509,-0.185019 11.185547,-0.765625 4.095473,-1.718056 6.290721,-3.71538 8.984375,-6.695313 5.326689,-5.892819 8.652035,-12.736377 11.626953,-20.08789 0.816138,-2.016809 1.433164,-3.959615 2.130859,-5.945313 z"
     id="path1"
     sodipodi:nodetypes="sccscsssscccsscsccscscccsccssccsssssssscc" />
  <path
     style="color:#000000;fill:#cbcbcb;fill-opacity:0.6;stroke-linejoin:round;-inkscape-stroke:none;paint-order:stroke fill markers"
     d="m 73.175815,19.327105 c 0,0 -2.707399,13.799527 -7.869558,26.556053 -2.581076,6.378265 -5.874687,12.453934 -9.036869,15.952198 -1.581091,1.749128 -3.078571,2.780732 -4.012423,3.172484 -0.933844,0.391749 -1.144929,0.422857 -2.118657,0.159763 -5.17725,-1.398844 -10.618335,-0.451517 -14.937702,1.594612 -4.319362,2.046134 -7.891096,5.104388 -10.932416,8.746014 -6.082633,7.283259 -10.123124,17.065549 -10.264871,27.447691 -0.141749,10.38215 4.010463,21.5719 14.750286,29.81983 10.739824,8.24796 27.3832,13.23052 50.922757,13.22403 23.530098,-0.007 40.226158,-4.99589 51.070898,-13.21185 10.84473,-8.216 15.19238,-19.35784 15.25184,-29.73158 0.0595,-10.373722 -3.77978,-20.164384 -9.70797,-27.468996 -2.9641,-3.652307 -6.46954,-6.726659 -10.75038,-8.791663 -4.28081,-2.065003 -9.71837,-3.02238 -14.87878,-1.628088 -0.97414,0.263203 -1.18523,0.23129 -2.11686,-0.159763 -0.93169,-0.391053 -2.42651,-1.420844 -4.00532,-3.169444 C 101.38222,58.341206 98.094131,52.265785 95.519,45.887725 90.368748,33.131604 87.674434,19.331668 87.674434,19.331668 86.323368,12.344619 74.501763,12.503178 73.175815,19.327105 Z"
     id="path3"
     sodipodi:nodetypes="csssssssscccsssscscc" />
  <text
     xml:space="preserve"
     style="font-size:102.4px;line-height:1.25;font-family:Iosevka;-inkscape-font-specification:Iosevka;stroke-width:0.0261224"
     x="79.035301"
     y="136.39169"
     id="text1"
     transform="scale(1.0082846,0.99178348)"><tspan
       sodipodi:role="line"
       id="tspan1"
       style="font-style:normal;font-variant:normal;font-weight:bold;font-stretch:expanded;font-size:102.4px;font-family:Inconsolata;-inkscape-font-specification:'Inconsolata Bold Expanded';text-align:center;text-anchor:middle;fill:#000000;fill-opacity:1;stroke-width:0.0261224"
       x="79.035301"
       y="136.39169">N</tspan></text>
  <path
     id="text3"
     style="font-weight:bold;font-stretch:expanded;font-size:102.4px;line-height:1.25;font-family:Inconsolata;-inkscape-font-specification:'Inconsolata Bold Expanded';text-align:center;text-anchor:middle;stroke-width:0.0261224"
     d="M 53.128058 72.596488 L 53.128058 136.39168 L 64.08488 136.39168 L 64.08488 90.721317 L 93.98566 136.39168 L 104.63528 136.39168 L 104.63528 77.306896 C 104.63528 76.146364 104.66941 75.327147 104.73768 74.849281 C 104.87421 74.371415 105.14729 73.927713 105.55689 73.518114 L 105.55689 72.596488 L 104.53288 72.596488 L 93.678507 72.596488 L 94.190462 115.60447 L 65.518496 72.596488 L 53.128058 72.596488 z "
     transform="scale(1.0082846,0.99178348)" />
</svg>

<svg xmlns="http://www.w3.org/2000/svg" width="160cm" height="160cm" viewBox="0 0 160 160"><path d="M80.867 0c-9.885-.028-19.431 6.353-21.433 16.656l.003-.025s-2.625 12.92-7.109 24a57.6 57.6 0 0 1-5.213 9.912c-6.583-.43-12.71 1.104-17.908 3.566-6.498 3.079-11.657 7.603-15.684 12.424C5.443 76.21.193 88.873.003 102.766c-.194 14.25 6.015 30.201 20.224 41.113C34.347 154.724 54.163 160.007 79.68 160c25.507-.008 45.338-5.307 59.521-16.053 14.265-10.807 20.717-26.583 20.799-40.81.08-13.879-4.916-26.61-12.838-36.371-3.945-4.861-9.054-9.452-15.539-12.58-5.208-2.513-11.337-4.066-17.926-3.643a57.6 57.6 0 0 1-5.195-9.897c-4.473-11.077-7.086-23.998-7.086-23.998l.004.026C99.315 5.79 90.288.027 80.867 0m-.453 45.19c.695 1.983 1.31 3.924 2.123 5.939 2.969 7.352 6.289 14.197 11.611 20.092 2.693 2.981 4.887 4.98 8.979 6.697v-.002c1.377.578 9.447 1.238 11.187.768 1.212-.328 3.516-.063 5.143.722h.002c2.077 1.002 3.978 2.56 5.961 5.004 3.935 4.848 6.62 11.697 6.58 18.567-.037 6.52-2.283 13.027-9.707 18.652-7.506 5.686-21.068 10.365-42.621 10.37-21.562.007-35.032-4.676-42.39-10.327-7.272-5.584-9.369-12.012-9.28-18.526.094-6.87 2.927-13.773 7.012-18.664 2.056-2.462 4.04-4.054 6.18-5.068 1.719-.814 4.036-1.07 5.292-.73 1.734.468 9.802-.185 11.186-.766 4.095-1.718 6.29-3.715 8.984-6.695 5.327-5.893 8.652-12.737 11.627-20.088.816-2.017 1.433-3.96 2.131-5.946" style="color:#000;fill:#9592ce;stroke-linejoin:round;-inkscape-stroke:none;paint-order:stroke fill markers"/><path d="M73.176 19.327s-2.708 13.8-7.87 26.556c-2.58 6.378-5.874 12.454-9.037 15.952-1.58 1.75-3.078 2.781-4.012 3.173s-1.145.423-2.119.16c-5.177-1.4-10.618-.452-14.937 1.594-4.32 2.046-7.891 5.105-10.933 8.746-6.082 7.283-10.123 17.066-10.265 27.448-.141 10.382 4.01 21.572 14.75 29.82S56.138 146.006 79.677 146c23.53-.007 40.227-4.996 51.071-13.212S145.94 113.43 146 103.056s-3.78-20.164-9.708-27.469c-2.964-3.652-6.47-6.726-10.75-8.791s-9.719-3.023-14.879-1.628c-.974.263-1.185.23-2.117-.16-.932-.391-2.426-1.421-4.005-3.17-3.158-3.497-6.446-9.572-9.021-15.95-5.15-12.756-7.845-26.556-7.845-26.556-1.35-6.987-13.172-6.829-14.498-.005" style="color:#000;fill:#cbcbcb;fill-opacity:.6;stroke-linejoin:round;-inkscape-stroke:none;paint-order:stroke fill markers"/><text xml:space="preserve" x="79.035" y="136.392" style="font-size:102.4px;line-height:1.25;font-family:Iosevka;-inkscape-font-specification:Iosevka;stroke-width:.0261224" transform="scale(1.00828 .99178)"><tspan x="79.035" y="136.392" style="font-style:normal;font-variant:normal;font-weight:700;font-stretch:expanded;font-size:102.4px;font-family:Inconsolata;-inkscape-font-specification:&quot;Inconsolata Bold Expanded&quot;;text-align:center;text-anchor:middle;fill:#000;fill-opacity:1;stroke-width:.0261224">N</tspan></text><path d="M53.128 72.596v63.796h10.957v-45.67l29.9 45.67h10.65V77.307q0-1.74.103-2.458.205-.717.819-1.33v-.923H93.679l.511 43.008-28.672-43.008z" style="font-weight:700;font-stretch:expanded;font-size:102.4px;line-height:1.25;font-family:Inconsolata;-inkscape-font-specification:&quot;Inconsolata Bold Expanded&quot;;text-align:center;text-anchor:middle;stroke-width:.0261224" transform="scale(1.00828 .99178)"/></svg>
